X:217
T: Bittfahrtslied
N: A0568C
O: Europa, Mitteleuropa, Deutschland
N: Leisentrit 1567 fol. 147
R: Romanze, Ballade, Lied, religioeses Lied
M: 4/1
L: 1/2
K: G
G | G2G2G2G2 | GAB2c2z
c | d2d2c2G2 | A2B2c2z
c | d2d2c2G2 | A2G2=F2z
F | A2_B2c2c2 | _B2G2B4
AGA2GFG2

